app/images/src/art-lemon.svg

<svg width="114" height="18" viewBox="0 0 114 18" fill="none" xmlns="http://www.w3.org/2000/svg">
<path d="M33.7445 4.55652V14.3102H30.839V13.3931C30.1998 14.1341 29.2509 14.583 27.9533 14.583C25.4162 14.583 23.3242 12.3396 23.3242 9.43309C23.3242 6.52659 25.4162 4.2832 27.9533 4.2832C29.2509 4.2832 30.1998 4.73211 30.839 5.47308V4.55652H33.7445ZM30.839 9.43309C30.839 7.9699 29.8709 7.05334 28.5344 7.05334C27.1978 7.05334 26.2297 7.97046 26.2297 9.43309C26.2297 10.8963 27.1978 11.8129 28.5344 11.8129C29.8709 11.8134 30.839 10.8963 30.839 9.43309Z" fill="white"/>
<path d="M42.2831 4.36328V7.67949C41.0825 7.48458 39.3776 7.97213 39.3776 9.90355V14.3125H36.4727V4.55818H39.3776V6.29414C39.7657 4.9872 41.0633 4.36328 42.2831 4.36328Z" fill="white"/>
<path d="M48.2086 7.36587V10.8185C48.2086 11.6572 48.9251 11.7356 50.2035 11.6572V14.3102C46.4072 14.7006 45.3037 13.5494 45.3037 10.8185V7.36587H43.7539V4.5571H45.3037V2.70409L48.2092 1.82617V4.5571H50.2041V7.36644H48.2086V7.36587Z" fill="white"/>
<path d="M58.0859 0.0703125H60.9909V14.3108H58.0859V0.0703125Z" fill="white"/>
<path d="M68.6419 11.9705C69.4357 11.9705 70.1139 11.6585 70.5015 11.2295L72.8253 12.5757C71.8763 13.9025 70.4433 14.5849 68.603 14.5849C65.2907 14.5849 63.2383 12.3416 63.2383 9.43505C63.2383 6.52854 65.3302 4.28516 68.3903 4.28516C71.2179 4.28516 73.3099 6.48933 73.3099 9.43505C73.3099 9.84475 73.271 10.2351 73.1937 10.6056H66.3181C66.6859 11.6193 67.5768 11.9705 68.6419 11.9705ZM70.4236 8.42019C70.1139 7.28884 69.2422 6.87914 68.3706 6.87914C67.2665 6.87914 66.5308 7.42521 66.2594 8.42019H70.4236Z" fill="white"/>
<path d="M90.0816 8.32163V14.3102H87.1761V8.57507C87.1761 7.59941 86.7112 6.97549 85.7815 6.97549C84.8133 6.97549 84.2706 7.65851 84.2706 8.80918V14.3102H81.3651V8.57507C81.3651 7.59941 80.9002 6.97549 79.9705 6.97549C79.0018 6.97549 78.4596 7.65851 78.4596 8.80918V14.3102H75.5547V4.55652H78.4596V5.45376C78.9053 4.79064 79.7572 4.2832 81.0548 4.2832C82.1973 4.2832 83.0497 4.75143 83.5919 5.57082C84.1341 4.79063 85.0249 4.2832 86.4004 4.2832C88.6294 4.2832 90.0816 5.88278 90.0816 8.32163Z" fill="white"/>
<path d="M92.1914 9.43309C92.1914 6.52659 94.4769 4.2832 97.3237 4.2832C100.171 4.2832 102.457 6.52659 102.457 9.43309C102.457 12.3396 100.171 14.583 97.3237 14.583C94.4774 14.583 92.1914 12.3402 92.1914 9.43309ZM99.5516 9.43309C99.5516 8.04831 98.5829 7.13118 97.3243 7.13118C96.0656 7.13118 95.0969 8.04831 95.0969 9.43309C95.0969 10.8179 96.065 11.735 97.3243 11.735C98.5829 11.735 99.5516 10.8184 99.5516 9.43309Z" fill="white"/>
<path d="M114 8.32302V14.3116H111.095V8.75204C111.095 7.54284 110.339 6.97688 109.409 6.97688C108.344 6.97688 107.608 7.60136 107.608 8.98615V14.3116H104.703V4.55791H107.608V5.47504C108.131 4.75338 109.1 4.28516 110.378 4.28516C112.334 4.28459 114 5.68926 114 8.32302Z" fill="white"/>
<path d="M14.485 1.18359H8.58597C3.99529 1.18359 0.273438 4.93223 0.273438 9.5565V15.4979C0.273438 16.835 1.35947 17.9288 2.68697 17.9288H8.58597C13.1772 17.9288 16.8985 14.1802 16.8985 9.5565V3.61506C16.8991 2.27801 15.8125 1.18359 14.485 1.18359Z" fill="#F8E015"/>
</svg>

<svg width="114" height="18" fill="none" xmlns="http://www.w3.org/2000/svg"><path d="M33.745 4.557v9.753h-2.906v-.917c-.64.741-1.588 1.19-2.886 1.19-2.537 0-4.629-2.243-4.629-5.15 0-2.906 2.092-5.15 4.63-5.15 1.297 0 2.246.45 2.885 1.19v-.916h2.906zm-2.906 4.876c0-1.463-.968-2.38-2.305-2.38-1.336 0-2.304.917-2.304 2.38 0 1.463.968 2.38 2.304 2.38 1.337 0 2.305-.917 2.305-2.38zm11.444-5.07V7.68c-1.2-.194-2.905.293-2.905 2.225v4.409h-2.905V4.557h2.905v1.736c.388-1.307 1.685-1.93 2.905-1.93zm5.926 3.003v3.453c0 .838.716.917 1.994.838v2.653c-3.796.39-4.9-.76-4.9-3.492V7.367h-1.55v-2.81h1.55V2.704l2.906-.878v2.731h1.995v2.81H48.21v-.001zM58.086.07h2.905v14.24h-2.905V.07zm10.556 11.9c.794 0 1.472-.312 1.86-.74l2.323 1.346c-.949 1.326-2.382 2.009-4.222 2.009-3.312 0-5.365-2.243-5.365-5.15 0-2.906 2.092-5.15 5.152-5.15 2.828 0 4.92 2.204 4.92 5.15 0 .41-.039.8-.116 1.17h-6.876c.368 1.014 1.259 1.365 2.324 1.365zm1.782-3.55c-.31-1.131-1.182-1.54-2.053-1.54-1.105 0-1.84.545-2.112 1.54h4.165zm19.658-.098v5.988h-2.906V8.575c0-.976-.465-1.6-1.395-1.6-.968 0-1.51.684-1.51 1.834v5.501h-2.906V8.575c0-.976-.465-1.6-1.394-1.6-.97 0-1.511.684-1.511 1.834v5.501h-2.905V4.557h2.905v.897c.445-.663 1.297-1.17 2.595-1.17 1.142 0 1.995.467 2.537 1.287.542-.78 1.433-1.288 2.808-1.288 2.23 0 3.682 1.6 3.682 4.039zm2.109 1.111c0-2.906 2.286-5.15 5.133-5.15s5.133 2.244 5.133 5.15c0 2.907-2.286 5.15-5.133 5.15s-5.133-2.243-5.133-5.15zm7.36 0c0-1.385-.968-2.302-2.227-2.302-1.258 0-2.227.917-2.227 2.302s.968 2.302 2.227 2.302 2.228-.917 2.228-2.302zM114 8.323v5.989h-2.905v-5.56c0-1.21-.756-1.775-1.686-1.775-1.065 0-1.801.624-1.801 2.01v5.325h-2.905V4.558h2.905v.917c.523-.722 1.492-1.19 2.77-1.19 1.956 0 3.622 1.404 3.622 4.038z" fill="#fff"/><path d="M14.485 1.184H8.586c-4.59 0-8.313 3.748-8.313 8.372v5.942a2.429 2.429 0 002.414 2.43h5.899c4.591 0 8.312-3.748 8.312-8.372v-5.94c.001-1.338-1.085-2.432-2.413-2.432z" fill="#F8E015"/></svg>
